X: 11651
Q: "Slow and plaintively."
M: 3/4
L: 1/8
K: Eb
(EF) |\
e2e2(fe) | c2c2(ec) | B2B2(cA) | (G2F2)EF |\
(cB)(GA)(Bc) | (c2B2)(ec) | B2G2(GF) | E2z2 |]
(ef) |\
g2f2(eg) | f2e2(df) | e2d2(c=B) | c2z2(ef) |\
g2e2(Bc) | B2G2EF | G2B2(ce) | {e}d2z2(cd) |\
e2f2(ed) | c2e2(dc) | (BA)(GF)EG | F2z2EF |\


